X:54
T:Maid Behind The Bar, The
S:The Session: https://thesession.org/tunes/64#setting47313
C:Traditional
R:reel
K:D
M:4/4
L:1/8
Q:1/4=120
|:"D"FAAB AFED|FAAB A2de|"Bm"fBBA Bcde|"G"fBBA "A"B2A2|
|"D"FAAB AFED|FAAB A2de|"Bm"fBBA BcdB|"A"AFEF "D"D4:|
|:"D"faab dde2|fdad f2 f2|"Em"gfga beef|"G"gebe "A"g2e2|
|"D"faaf bfaf|defd ef e2|"Bm"fBBA BcdB|"A"AFEF "D"D4:|

